public/mini_logo.svg

<svg width="50" height="50" viewBox="0 0 50 50" fill="none" xmlns="http://www.w3.org/2000/svg">
<circle cx="25" cy="25" r="25" fill="#DBF228"/>
<path d="M11.0619 17.64V14.12H25.9419V17.64H11.0619ZM16.2459 37V14.12H20.7579V37H16.2459Z" fill="#0D0D0D"/>
<path d="M22.7386 31.141V20.3365H27.1801V31.141H22.7386ZM22.7386 20.3365C22.7386 19.1185 23.0431 18.0265 23.6521 17.0605C24.2611 16.0945 25.0906 15.3385 26.1406 14.7925C27.2116 14.2465 28.4191 13.9735 29.7631 13.9735V17.4385C28.9651 17.4385 28.3351 17.6905 27.8731 18.1945C27.4111 18.6985 27.1801 19.4125 27.1801 20.3365H22.7386ZM22.7386 31.1095H27.1801C27.1801 32.0335 27.4111 32.758 27.8731 33.283C28.3351 33.787 28.9651 34.039 29.7631 34.039V37.504C28.4191 37.504 27.2116 37.231 26.1406 36.685C25.0906 36.118 24.2611 35.362 23.6521 34.417C23.0431 33.451 22.7386 32.3485 22.7386 31.1095ZM32.8816 21.3445C32.7976 20.1265 32.4721 19.171 31.9051 18.478C31.3591 17.785 30.6346 17.4385 29.7316 17.4385V13.9735C31.7686 13.9735 33.4066 14.5615 34.6456 15.7375C35.9056 16.8925 36.6511 18.52 36.8821 20.62L32.8816 21.3445ZM32.8816 30.133L36.8821 30.826C36.6511 32.926 35.9056 34.564 34.6456 35.74C33.4066 36.916 31.7686 37.504 29.7316 37.504V34.039C30.6346 34.039 31.3591 33.6925 31.9051 32.9995C32.4721 32.3065 32.7976 31.351 32.8816 30.133Z" fill="#0D0D0D"/>
<rect x="11" y="14" width="18.2" height="1" fill="#0D0D0D"/>
</svg>

<svg xmlns="http://www.w3.org/2000/svg" width="50" height="50" fill="none"><circle cx="25" cy="25" r="25" fill="#DBF228"/><path fill="#0D0D0D" d="M11.062 17.64v-3.52h14.88v3.52h-14.88ZM16.246 37V14.12h4.512V37h-4.512Z"/><path fill="#0D0D0D" d="M22.739 31.141V20.337h4.441V31.14H22.74Zm0-10.804c0-1.218.304-2.31.913-3.276a6.334 6.334 0 0 1 2.489-2.268c1.07-.546 2.278-.82 3.622-.82v3.466c-.798 0-1.428.252-1.89.756-.462.503-.693 1.218-.693 2.142H22.74Zm0 10.773h4.441c0 .923.231 1.648.693 2.173.462.504 1.092.756 1.89.756v3.465c-1.344 0-2.551-.273-3.622-.819-1.05-.567-1.88-1.323-2.489-2.268-.609-.966-.913-2.069-.913-3.308Zm10.143-9.765c-.084-1.218-.41-2.174-.977-2.867-.546-.693-1.27-1.04-2.173-1.04v-3.464c2.037 0 3.675.588 4.914 1.764 1.26 1.154 2.005 2.782 2.236 4.882l-4 .724Zm0 8.788 4 .693c-.23 2.1-.976 3.738-2.236 4.914-1.24 1.176-2.877 1.764-4.914 1.764v-3.465c.903 0 1.627-.346 2.173-1.04.567-.693.893-1.648.977-2.866Z"/><path fill="#0D0D0D" d="M11 14h18.2v1H11z"/></svg>
